X:1
T:Title
%%score { ( 1 3 ) | ( 2 4 ) }
L:1/8
M:3/4
K:F
V:1 treble nm="Grand Piano"
V:3 treble 
V:2 bass 
V:4 bass 
V:1
 z2 z2[Q:1/4=100] DD | [FA]2 [FA]2 [FA]B | [Ec]2 [EA]2 [EG]A | G4 FG | [FA]2 [DF]D EF | G2 E2 CE | %6
 D4 cc | c2 c2 cc | c2 c2 ee | d>e c>d B>c | A4 B>c | d2 A2 B>c | [Ad]2 A2 G>A | G4 F>G | %14
 [FA]B [Fc]2 [FA][FA] | [DG]>A G2 F>A | B4 F>G | A2 FD EF | G2 E>D CE |[M:2/4] D4 |] %20
V:2
 z2 z2 [D,F,A,][D,F,A,] | [D,A,]2 [D,A,]2 [D,A,]2 | [C,A,]2 [C,A,]2 [C,A,]2 | [D,B,D]4 .[D,B,D]2 | %4
 [D,A,]2 [D,A,]2 .[D,A,D]2 | [D,B,D]2 [D,B,D]2 .[D,G,B,]2 | [D,F,A,]4 [D,F,D][D,F,D] | %7
 [E,A,E]2 [E,A,E]2 [E,A,E][E,A,E] | [E,A,E]2 [E,A,E]2 [E,A,E][E,A,E] | %9
 [D,A,]2 [E,A,E]2[K:treble] [G,B,D]2 | [A,CE]4 [A,CE]2 | [A,DF]2 [A,DF]2 [G,DG]2 | %12
 [F,D]2 [F,DF]2 [F,D]2 | [G,B,D]4 [G,B,D]2 | [D,A,]2 [D,A,]2 [D,A,][D,A,] | %15
 z2[K:treble] z2 [A,D]2 | [G,B,D]4 [G,B,D]2 | z2 z2 .D2 | [D,B,D]2 [D,G,B,]2 .[D,G,B,]2 | %19
[M:2/4] [D,F,A,]4 |] %20
V:3
 x6 | x6 | x6 | x6 | x6 | x6 | x6 | x6 | x6 | F2 z2 z2 | x6 | x6 | x6 | x6 | x6 | x6 | x6 | x6 | %18
 x6 |[M:2/4] x4 |] %20
V:4
 x6 | x6 | x6 | x6 | x6 | x6 | x6 | x6 | x6 | x4[K:treble] x2 | x6 | x6 | x6 | x6 | x6 | %15
 [G,B,]2[K:treble] [G,B,D]2 z z/ F/ | x6 | [F,A,E]2 .[F,A,D]2 [F,A,]-[F,A,D] | x6 |[M:2/4] x4 |] %20

